src/assets/duotone/Category.svg

<svg width="24" height="24" viewBox="0 0 24 24"  xmlns="http://www.w3.org/2000/svg">
<path d="M7.24 2H5.34C3.15 2 2 3.15 2 5.33V7.23C2 9.41 3.15 10.56 5.33 10.56H7.23C9.41 10.56 10.56 9.41 10.56 7.23V5.33C10.57 3.15 9.42 2 7.24 2Z" />
<path opacity="0.4" d="M18.6699 2H16.7699C14.5899 2 13.4399 3.15 13.4399 5.33V7.23C13.4399 9.41 14.5899 10.56 16.7699 10.56H18.6699C20.8499 10.56 21.9999 9.41 21.9999 7.23V5.33C21.9999 3.15 20.8499 2 18.6699 2Z" />
<path d="M18.6699 13.4297H16.7699C14.5899 13.4297 13.4399 14.5797 13.4399 16.7597V18.6597C13.4399 20.8397 14.5899 21.9897 16.7699 21.9897H18.6699C20.8499 21.9897 21.9999 20.8397 21.9999 18.6597V16.7597C21.9999 14.5797 20.8499 13.4297 18.6699 13.4297Z" />
<path opacity="0.4" d="M7.24 13.4297H5.34C3.15 13.4297 2 14.5797 2 16.7597V18.6597C2 20.8497 3.15 21.9997 5.33 21.9997H7.23C9.41 21.9997 10.56 20.8497 10.56 18.6697V16.7697C10.57 14.5797 9.42 13.4297 7.24 13.4297Z" />
</svg>

<?xml version="1.0" encoding="UTF-8"?>
<svg width="24" height="24" viewBox="0 0 24 24" xmlns="http://www.w3.org/2000/svg">
 <path d="M7.24 2H5.34C3.15 2 2 3.15 2 5.33V7.23C2 9.41 3.15 10.56 5.33 10.56H7.23C9.41 10.56 10.56 9.41 10.56 7.23V5.33C10.57 3.15 9.42 2 7.24 2Z"/>
 <path d="m18.67 2h-1.9c-2.18 0-3.33 1.15-3.33 3.33v1.9c0 2.18 1.15 3.33 3.33 3.33h1.9c2.18 0 3.33-1.15 3.33-3.33v-1.9c0-2.18-1.15-3.33-3.33-3.33z" opacity=".4"/>
 <path d="m18.67 13.43h-1.9c-2.18 0-3.33 1.15-3.33 3.33v1.9c0 2.18 1.15 3.33 3.33 3.33h1.9c2.18 0 3.33-1.15 3.33-3.33v-1.9c0-2.18-1.15-3.33-3.33-3.33z"/>
 <path d="m7.24 13.43h-1.9c-2.19 0-3.34 1.15-3.34 3.33v1.9c0 2.19 1.15 3.34 3.33 3.34h1.9c2.18 0 3.33-1.15 3.33-3.33v-1.9c0.01-2.19-1.14-3.34-3.32-3.34z" opacity=".4"/>
</svg>
